alarm.svg

<svg fill="currentColor" viewBox="0 0 24 24"><path d="M12 20a7 7 0 0 1-7-7 7 7 0 0 1 7-7 7 7 0 0 1 7 7 7 7 0 0 1-7 7m0-16a9 9 0 0 0-9 9 9 9 0 0 0 9 9 9 9 0 0 0 9-9 9 9 0 0 0-9-9m.5 4H11v6l4.75 2.85.75-1.23-4-2.37zM7.88 3.39 6.6 1.86 2 5.71l1.29 1.53zM22 5.72l-4.6-3.86-1.29 1.53 4.6 3.86z"/></svg>

<svg  viewBox="0 0 24 24" fill="currentColor"><path  d="M12,20A7,7 0 0,1 5,13A7,7 0 0,1 12,6A7,7 0 0,1 19,13A7,7 0 0,1 12,20M12,4A9,9 0 0,0 3,13A9,9 0 0,0 12,22A9,9 0 0,0 21,13A9,9 0 0,0 12,4M12.5,8H11V14L15.75,16.85L16.5,15.62L12.5,13.25V8M7.88,3.39L6.6,1.86L2,5.71L3.29,7.24L7.88,3.39M22,5.72L17.4,1.86L16.11,3.39L20.71,7.25L22,5.72Z"/></svg>
